X: 33019
T: Price Of My Pig, The
R: jig
M: 6/8
K: Aminor
|:EAA AGA|BcB GAB|cdc BAB|AGE DED|
EAA AGA|BcB GAB|cdc BAG|1 AG^F E2D:|2 AG^F E2d||
|:efe ded|c2c B2B|c2c B2B|AGE DED|
EAA AGA|BAB GAB|cdc BAG|1 AG^F E2d:|2 AG^F E2D||

